X:1
T: Timmy Clifford's Slide
R: jig, slide
S: Gary Chapin <gchapin:CTEL.NET> irtrad-l 2000-02-14
M: 12/8
L: 1/8
R: slide
K: G
|: GBd  e2d dBd g3  | GBd  ceb agf g3 | GBd  e2d dBd gab | d'3 b3 agf g3 :|
|: e=fe d2c BAG ABc | e=fe d2c BAG A3 | e=fe d2c BAG ABc |  c3 B3 AGF G3 :|
